X:52
%%etbk:tnset id:18,pos:1,rep:3
%%etbk:site1 http://www.thesession.org/tunes/display/1341
T: Sailing Into Walpole's Marsh
Z: Piano Box Version by Martin Fleischmann (www.boxplayer.ch)
M: 4/4
L: 1/8
R: reel
K: Ador
!3!AAA!2!G !3!ABcA | !2!G!1!E!2!E!1!E !4!G!2!E!1!D2 | !3!A3!2!G !1!ABc!4!d | !3!e!2!d!5!gd !1!B!2!dd!1!B|
!3!A!2!GGG !3!A!2!GGG | !4!GEDE !4!G!2!E!1!D2 | !3!A2!3!A!2!G !1!ABc!4!d | !5!e!2!B!4!d!2!B {c}!2!BA!4!d!2!B|
!1!A2!3!AB !5!c3!3!A | !2!G!1!E!2!E!1!E !4!G!2!E!1!D2 | !3!A2!3!A!2!G !1!ABc!4!d | !3!e!2!d!5!gd !1!B!2!dd!1!B |
!3!A!2!GGG !3!A!2!GGG | !4!GEDE !4!G!2!E!1!D2 | !3!A2AG !1!ABc!4!d | !5!eBd!2!B {c}B!1!AA2||
|: !2!e2!4!gg !2!e!5!(aa)a | !4!g!3!e!2!d!1!B !2!c!1!AA2| !2!e!4!g!2!gg !1!e!3!aaa | !3!a!2!g!1!e!2!c !3!d2!2!c!3!d |
!2!e2!4!gg !2!e!5!(aa)a | !4!g!3!e!2!d!3!B !2!c!1!AA!2!c | !1!c2!4!gc !5!ac!4!gc |1 !2!eage !1!d2 !2!c!1!d:|2 !2!eage !1!d4||

